Origami/64x64/apps/coypu.svg

<svg width="64" height="64" version="1.1" viewBox="0 0 16.93 16.93" xmlns="http://www.w3.org/2000/svg">
 <g transform="translate(0,-280.06665)">
  <circle cx="8.467" cy="288.798" r="7.408" style="opacity:.2"/>
  <circle cx="8.467" cy="288.533" r="7.408" style="fill:#fb6651"/>
  <path d="m6.7923502 285.09475s-0.1470367-1e-3 -0.2108399 7e-3c-1.4483873-8e-3 -2.2590397 1.57536-2.9724283 2.46084-0.3149465 0.3924-0.5674072 0.70486-0.5674072 0.70486-0.5456548 0.56445-1.2945251 1.15031-1.9099609 1.50275a7.408333 7.408333 0 0 0 0.1074869 0.61495c0.2304163-0.10323 0.5029971-0.20353 0.613916-0.29249 0.6078096-0.48752 1.6713927-1.28157 1.7797364-1.28157 0.108344 0 0.2942902-0.0451 0.3720703 0.22427 0.07778 0.26936-0.1012859 0.59015-0.1012859 0.59015s-0.2355591 0.40228-0.2273763 0.62322c0.1113239 0.7964 0.7526888 1.59397 1.4045655 1.70325 0.4695748 0.0642 1.1637533 0.0217 1.1637531 0.0217l0.01447-0.11783c-0.015198-0.1788-0.3824055-0.25528-0.3824055-0.25528-0.00286 2e-3 -0.4666842 0.0897-0.6697265-4e-3 -0.3425071-0.1568-0.7431072-0.77338-0.7431072-0.85162 0-0.0782 0.1147218-0.42995 0.1147218-0.42995s0.3780221 0.0517 0.5033282 0.0517c0.1253062 0 0.4485516 0.0155 0.4485516 0.0155l0.242879 0.37517c0.076272 0.1472 0.1711317 0.0733 0.2976563 0.10749l0.5405355 6e-3 0.373104-8e-3v-0.19017c0 0.1902 2.675e-4 -0.18064-0.2418458-0.18604-0.2097929-0.01-0.483113-0.0369-0.5064292-0.11265-0.038216-0.1242 0.015503-0.44752 0.015503-0.44752s0.269943-0.13034 0.8392253-0.0176c0.5692822 0.1126 1.2174968 0.58395 1.2174968 0.58395-0.1627658 0.30056-0.3118789 0.36488-0.3410645 0.67282-0.029528 0.279-0.029368 0.27906 0.1539957 0.27906h0.8743653s3.2e-5 -0.37002-0.2511475-0.3514c-0.1761516-6e-3 -0.2738845-0.016-0.273885-0.031 0-0.0704 0.3358967-0.36484 0.3358967-0.36484l0.2377117-0.17156s0.3323717 0.2233 0.7596436 0.33176c0.4272708 0.1084 0.9601478 0.0558 0.9601478 0.0558 0.166754 0.1004 0.199406 0.18418 0.282153 0.3266 0.06575 0.25824 0.06592 0.20542 0.209806 0.21084 0.315276 8e-3 0.581687-6e-3 0.889868-0.0279 0 0 0.02511-0.3483-0.487825-0.3483 0 0-0.187405-0.11829-0.221175-0.29455-0.03377-0.1762-0.01344-0.63769-0.01344-0.63769l0.253214-0.0217 0.33383 0.28525 0.20774 0.0196 0.288354 0.46405s0.574291 0.0422 0.766878-0.031c0.192586-0.073 0.541516-0.26761 0.743107-0.48575 0.201592-0.21816 0.335885-0.73446 0.267684-1.02526-0.0682-0.2908-0.444417-0.63872-0.444417-0.63872-0.796892-0.75582-2.039667-2.01977-2.810164-2.02675-0.122876 0-0.42873 0.28869-0.605648 0.16123-1.1025853-0.76021-2.3097425-1.69378-3.6318193-1.7477zm5.6430668 3.17396c0.219187 0 0.396875 0.17765 0.396875 0.39688 0 0.21919-0.177689 0.39687-0.396875 0.39687-0.219188 0-0.396875-0.17763-0.396875-0.39687 0-0.21918 0.177688-0.39688 0.396875-0.39688z" style="fill-rule:evenodd;opacity:.2"/>
  <path transform="matrix(.26458333 0 0 .26458333 0 280.06665)" d="m25.671875 18.003906s-0.555729-0.003863-0.796875 0.025391c-5.47422-0.030236-8.538103 5.954085-11.234375 9.300781-1.190349 1.483087-2.144531 2.664063-2.144531 2.664063-2.0623176 2.133354-4.8926936 4.34763-7.2187502 5.679687a27.999999 27.999999 0 0 0 0.40625 2.324219c0.8708647-0.390161 1.9010914-0.769242 2.3203124-1.105469 2.2972332-1.842595 6.3170748-4.84375 6.7265628-4.84375 0.409489 0 1.112278-0.170473 1.40625 0.847656 0.293971 1.018054-0.382813 2.230469-0.382813 2.230469s-0.890302 1.52042-0.859375 2.355469c0.420752 3.010016 2.844808 6.024473 5.308594 6.4375 1.774771 0.242646 4.398438 0.082031 4.398437 0.082031l0.054688-0.445312c-0.057441-0.67578-1.445312-0.964844-1.445312-0.964844-0.01081 0.007559-1.763846 0.338958-2.53125-0.013672-1.294515-0.59263-2.808594-2.92304-2.808594-3.21875 0-0.295559 0.433594-1.625 0.433594-1.625s1.428745 0.195313 1.902343 0.195313 1.695313 0.058593 1.695313 0.058593l0.917968 1.417969c0.288273 0.556346 0.646797 0.277028 1.125 0.40625l2.042969 0.021484 1.410157-0.029296v-0.71875c0 0.718866 0.001011-0.682716-0.914063-0.703126-0.792918-0.037795-1.825939-0.139482-1.914063-0.425781-0.144438-0.469417 0.058594-1.691406 0.058594-1.691406s1.020257-0.492624 3.171875-0.066406c2.151618 0.425575 4.601563 2.207031 4.601563 2.207031-0.615178 1.135975-1.178755 1.379101-1.289063 2.542969-0.111602 1.054488-0.110999 1.054687 0.582031 1.054687h3.304688s1.21e-4 -1.3985-0.949219-1.328125c-0.66577-0.022677-1.035154-0.060494-1.035156-0.117187 0-0.266079 1.269531-1.378906 1.269531-1.378906l0.898438-0.648438s1.256208 0.843979 2.871094 1.253906c1.614885 0.409701 3.628906 0.210938 3.628906 0.210938 0.630251 0.379464 0.753661 0.696094 1.066406 1.234375 0.248504 0.976025 0.249144 0.77639 0.792969 0.796875 1.191594 0.030236 2.198499-0.022697 3.363281-0.105469 0 0 0.094906-1.316406-1.84375-1.316406 0 0-0.708303-0.447102-0.835938-1.113281-0.127634-0.665953-0.050781-2.410157-0.050781-2.410157l0.957031-0.082031 1.261719 1.078125 0.785157 0.074219 1.089843 1.753906s2.17055 0.159474 2.898438-0.117188c0.727884-0.275905 2.046675-1.011471 2.808593-1.835937 0.761923-0.824542 1.269487-2.775913 1.011719-3.875-0.257764-1.099087-1.679687-2.414063-1.679687-2.414063-3.011876-2.856642-7.708976-7.633775-10.621094-7.660156-0.464413 0-1.620396 1.091114-2.289062 0.609375-4.167253-2.873234-8.729737-6.401676-13.726563-6.605469v-0.003906zm21.328125 11.996094c0.828427 0 1.5 0.671414 1.5 1.5 0 0.828435-0.671577 1.5-1.5 1.5-0.828427 0-1.5-0.671376-1.5-1.5 0-0.828397 0.671577-1.5 1.5-1.5z" style="fill-rule:evenodd;fill:#ffffff"/>
  <path transform="matrix(.26458333 0 0 .26458333 0 280.06665)" d="M 32 4 A 27.999999 27.999999 0 0 0 4 32 A 27.999999 27.999999 0 0 0 4.0175781 32.492188 A 27.999999 27.999999 0 0 1 32 5 A 27.999999 27.999999 0 0 1 59.974609 32.492188 A 27.999999 27.999999 0 0 0 60 32 A 27.999999 27.999999 0 0 0 32 4 z" style="fill:#ffffff;opacity:.2"/>
 </g>
</svg>

<svg xmlns="http://www.w3.org/2000/svg" width="64" height="64" version="1.1" viewBox="0 0 16.93 16.93">
 <g transform="translate(0,-280.06665)">
  <circle style="opacity:0.2" cx="8.467" cy="288.798" r="7.408"/>
  <circle style="fill:#fb6651" cx="8.467" cy="288.533" r="7.408"/>
  <path style="opacity:0.2;fill-rule:evenodd" d="m 6.7923502,285.09475 c 0,0 -0.1470367,-10e-4 -0.2108399,0.007 -1.4483873,-0.008 -2.2590397,1.57536 -2.9724283,2.46084 -0.3149465,0.3924 -0.5674072,0.70486 -0.5674072,0.70486 -0.5456548,0.56445 -1.2945251,1.15031 -1.9099609,1.50275 a 7.408333,7.408333 0 0 0 0.1074869,0.61495 c 0.2304163,-0.10323 0.5029971,-0.20353 0.613916,-0.29249 0.6078096,-0.48752 1.6713927,-1.28157 1.7797364,-1.28157 0.108344,0 0.2942902,-0.0451 0.3720703,0.22427 0.07778,0.26936 -0.1012859,0.59015 -0.1012859,0.59015 0,0 -0.2355591,0.40228 -0.2273763,0.62322 0.1113239,0.7964 0.7526888,1.59397 1.4045655,1.70325 0.4695748,0.0642 1.1637533,0.0217 1.1637531,0.0217 l 0.01447,-0.11783 c -0.015198,-0.1788 -0.3824055,-0.25528 -0.3824055,-0.25528 -0.00286,0.002 -0.4666842,0.0897 -0.6697265,-0.004 -0.3425071,-0.1568 -0.7431072,-0.77338 -0.7431072,-0.85162 0,-0.0782 0.1147218,-0.42995 0.1147218,-0.42995 0,0 0.3780221,0.0517 0.5033282,0.0517 0.1253062,0 0.4485516,0.0155 0.4485516,0.0155 l 0.242879,0.37517 c 0.076272,0.1472 0.1711317,0.0733 0.2976563,0.10749 l 0.5405355,0.006 0.373104,-0.008 v -0.19017 c 0,0.1902 2.675e-4,-0.18064 -0.2418458,-0.18604 -0.2097929,-0.01 -0.483113,-0.0369 -0.5064292,-0.11265 -0.038216,-0.1242 0.015503,-0.44752 0.015503,-0.44752 0,0 0.269943,-0.13034 0.8392253,-0.0176 0.5692822,0.1126 1.2174968,0.58395 1.2174968,0.58395 -0.1627658,0.30056 -0.3118789,0.36488 -0.3410645,0.67282 -0.029528,0.279 -0.029368,0.27906 0.1539957,0.27906 h 0.8743653 c 0,0 3.2e-5,-0.37002 -0.2511475,-0.3514 -0.1761516,-0.006 -0.2738845,-0.016 -0.273885,-0.031 0,-0.0704 0.3358967,-0.36484 0.3358967,-0.36484 l 0.2377117,-0.17156 c 0,0 0.3323717,0.2233 0.7596436,0.33176 0.4272708,0.1084 0.9601478,0.0558 0.9601478,0.0558 0.166754,0.1004 0.199406,0.18418 0.282153,0.3266 0.06575,0.25824 0.06592,0.20542 0.209806,0.21084 0.315276,0.008 0.581687,-0.006 0.889868,-0.0279 0,0 0.02511,-0.3483 -0.487825,-0.3483 0,0 -0.187405,-0.11829 -0.221175,-0.29455 -0.03377,-0.1762 -0.01344,-0.63769 -0.01344,-0.63769 l 0.253214,-0.0217 0.33383,0.28525 0.20774,0.0196 0.288354,0.46405 c 0,0 0.574291,0.0422 0.766878,-0.031 0.192586,-0.073 0.541516,-0.26761 0.743107,-0.48575 0.201592,-0.21816 0.335885,-0.73446 0.267684,-1.02526 -0.0682,-0.2908 -0.444417,-0.63872 -0.444417,-0.63872 -0.796892,-0.75582 -2.039667,-2.01977 -2.810164,-2.02675 -0.122876,0 -0.42873,0.28869 -0.605648,0.16123 -1.1025853,-0.76021 -2.3097425,-1.69378 -3.6318193,-1.7477 z m 5.6430668,3.17396 c 0.219187,0 0.396875,0.17765 0.396875,0.39688 0,0.21919 -0.177689,0.39687 -0.396875,0.39687 -0.219188,0 -0.396875,-0.17763 -0.396875,-0.39687 0,-0.21918 0.177688,-0.39688 0.396875,-0.39688 z"/>
  <path style="fill:#ffffff;fill-rule:evenodd" d="M 25.671875 18.003906 C 25.671875 18.003906 25.116146 18.000043 24.875 18.029297 C 19.40078 17.999061 16.336897 23.983382 13.640625 27.330078 C 12.450276 28.813165 11.496094 29.994141 11.496094 29.994141 C 9.4337764 32.127495 6.6034004 34.341771 4.2773438 35.673828 A 27.999999 27.999999 0 0 0 4.6835938 37.998047 C 5.5544585 37.607886 6.5846852 37.228805 7.0039062 36.892578 C 9.3011394 35.049983 13.320981 32.048828 13.730469 32.048828 C 14.139958 32.048828 14.842747 31.878355 15.136719 32.896484 C 15.43069 33.914538 14.753906 35.126953 14.753906 35.126953 C 14.753906 35.126953 13.863604 36.647373 13.894531 37.482422 C 14.315283 40.492438 16.739339 43.506895 19.203125 43.919922 C 20.977896 44.162568 23.601563 44.001953 23.601562 44.001953 L 23.65625 43.556641 C 23.598809 42.880861 22.210938 42.591797 22.210938 42.591797 C 22.200128 42.599356 20.447092 42.930755 19.679688 42.578125 C 18.385173 41.985495 16.871094 39.655085 16.871094 39.359375 C 16.871094 39.063816 17.304688 37.734375 17.304688 37.734375 C 17.304688 37.734375 18.733433 37.929688 19.207031 37.929688 C 19.680629 37.929688 20.902344 37.988281 20.902344 37.988281 L 21.820312 39.40625 C 22.108585 39.962596 22.467109 39.683278 22.945312 39.8125 L 24.988281 39.833984 L 26.398438 39.804688 L 26.398438 39.085938 C 26.398438 39.804804 26.399449 38.403222 25.484375 38.382812 C 24.691457 38.345017 23.658436 38.24333 23.570312 37.957031 C 23.425874 37.487614 23.628906 36.265625 23.628906 36.265625 C 23.628906 36.265625 24.649163 35.773001 26.800781 36.199219 C 28.952399 36.624794 31.402344 38.40625 31.402344 38.40625 C 30.787166 39.542225 30.223589 39.785351 30.113281 40.949219 C 30.001679 42.003707 30.002282 42.003906 30.695312 42.003906 L 34 42.003906 C 34 42.003906 34.000121 40.605406 33.050781 40.675781 C 32.385011 40.653104 32.015627 40.615287 32.015625 40.558594 C 32.015625 40.292515 33.285156 39.179688 33.285156 39.179688 L 34.183594 38.53125 C 34.183594 38.53125 35.439802 39.375229 37.054688 39.785156 C 38.669573 40.194857 40.683594 39.996094 40.683594 39.996094 C 41.313845 40.375558 41.437255 40.692188 41.75 41.230469 C 41.998504 42.206494 41.999144 42.006859 42.542969 42.027344 C 43.734563 42.05758 44.741468 42.004647 45.90625 41.921875 C 45.90625 41.921875 46.001156 40.605469 44.0625 40.605469 C 44.0625 40.605469 43.354197 40.158367 43.226562 39.492188 C 43.098928 38.826235 43.175781 37.082031 43.175781 37.082031 L 44.132812 37 L 45.394531 38.078125 L 46.179688 38.152344 L 47.269531 39.90625 C 47.269531 39.90625 49.440081 40.065724 50.167969 39.789062 C 50.895853 39.513157 52.214644 38.777591 52.976562 37.953125 C 53.738485 37.128583 54.246049 35.177212 53.988281 34.078125 C 53.730517 32.979038 52.308594 31.664062 52.308594 31.664062 C 49.296718 28.80742 44.599618 24.030287 41.6875 24.003906 C 41.223087 24.003906 40.067104 25.09502 39.398438 24.613281 C 35.231185 21.740047 30.668701 18.211605 25.671875 18.007812 L 25.671875 18.003906 z M 47 30 C 47.828427 30 48.5 30.671414 48.5 31.5 C 48.5 32.328435 47.828423 33 47 33 C 46.171573 33 45.5 32.328624 45.5 31.5 C 45.5 30.671603 46.171577 30 47 30 z" transform="matrix(0.26458333,0,0,0.26458333,0,280.06665)"/>
  <path style="opacity:0.2;fill:#ffffff" d="M 32 4 A 27.999999 27.999999 0 0 0 4 32 A 27.999999 27.999999 0 0 0 4.0175781 32.492188 A 27.999999 27.999999 0 0 1 32 5 A 27.999999 27.999999 0 0 1 59.974609 32.492188 A 27.999999 27.999999 0 0 0 60 32 A 27.999999 27.999999 0 0 0 32 4 z" transform="matrix(0.26458333,0,0,0.26458333,0,280.06665)"/>
 </g>
</svg>
